images/ic-exec-desc.svg

<svg height="18" viewBox="0 0 20 18" width="20" xmlns="http://www.w3.org/2000/svg"><g fill="none" fill-rule="evenodd" transform="translate(-2 -3)"><path d="m0 0h24v24h-24z"/><path d="m17 16.99c-1.35 0-2.2.42-2.95.8-.65.33-1.18.6-2.05.6-.9 0-1.4-.25-2.05-.6-.75-.38-1.57-.8-2.95-.8s-2.2.42-2.95.8c-.65.33-1.17.6-2.05.6v1.95c1.35 0 2.2-.42 2.95-.8.65-.33 1.17-.6 2.05-.6s1.4.25 2.05.6c.75.38 1.57.8 2.95.8s2.2-.42 2.95-.8c.65-.33 1.18-.6 2.05-.6.9 0 1.4.25 2.05.6.75.38 1.58.8 2.95.8v-1.95c-.9 0-1.4-.25-2.05-.6-.75-.38-1.6-.8-2.95-.8zm0-4.45c-1.35 0-2.2.43-2.95.8-.65.32-1.18.6-2.05.6-.9 0-1.4-.25-2.05-.6-.75-.38-1.57-.8-2.95-.8s-2.2.43-2.95.8c-.65.32-1.17.6-2.05.6v1.95c1.35 0 2.2-.43 2.95-.8.65-.35 1.15-.6 2.05-.6s1.4.25 2.05.6c.75.38 1.57.8 2.95.8s2.2-.43 2.95-.8c.65-.35 1.15-.6 2.05-.6s1.4.25 2.05.6c.75.38 1.58.8 2.95.8v-1.95c-.9 0-1.4-.25-2.05-.6-.75-.38-1.6-.8-2.95-.8zm2.95-8.08c-.75-.38-1.58-.8-2.95-.8s-2.2.42-2.95.8c-.65.32-1.18.6-2.05.6-.9 0-1.4-.25-2.05-.6-.75-.37-1.57-.8-2.95-.8s-2.2.42-2.95.8c-.65.33-1.17.6-2.05.6v1.93c1.35 0 2.2-.43 2.95-.8.65-.33 1.17-.6 2.05-.6s1.4.25 2.05.6c.75.38 1.57.8 2.95.8s2.2-.43 2.95-.8c.65-.32 1.18-.6 2.05-.6.9 0 1.4.25 2.05.6.75.38 1.58.8 2.95.8v-1.95c-.9 0-1.4-.25-2.05-.58zm-2.95 3.63c-1.35 0-2.2.43-2.95.8-.65.35-1.15.6-2.05.6s-1.4-.25-2.05-.6c-.75-.38-1.57-.8-2.95-.8s-2.2.43-2.95.8c-.65.35-1.15.6-2.05.6v1.95c1.35 0 2.2-.43 2.95-.8.65-.32 1.18-.6 2.05-.6s1.4.25 2.05.6c.75.38 1.57.8 2.95.8s2.2-.43 2.95-.8c.65-.32 1.18-.6 2.05-.6.9 0 1.4.25 2.05.6.75.38 1.58.8 2.95.8v-1.95c-.9 0-1.4-.25-2.05-.6-.75-.38-1.6-.8-2.95-.8z" fill="#3e4241" fill-rule="nonzero"/></g></svg>

<?xml version="1.0" encoding="UTF-8"?>
<svg width="20px" height="18px" viewBox="0 0 20 18" version="1.1" xmlns="http://www.w3.org/2000/svg" xmlns:xlink="http://www.w3.org/1999/xlink">
    <!-- Generator: Sketch 54.1 (76490) - https://sketchapp.com -->
    <title>ic-exec-desc</title>
    <desc>Created with Sketch.</desc>
    <g id="Page-1" stroke="none" stroke-width="1" fill="none" fill-rule="evenodd">
        <g id="ic-exec-desc" transform="translate(-2.000000, -3.000000)">
            <polygon id="Path" points="0 0 24 0 24 24 0 24"></polygon>
            <path d="M17,16.99 C15.65,16.99 14.8,17.41 14.05,17.79 C13.4,18.12 12.87,18.39 12,18.39 C11.1,18.39 10.6,18.14 9.95,17.79 C9.2,17.41 8.38,16.99 7,16.99 C5.62,16.99 4.8,17.41 4.05,17.79 C3.4,18.12 2.88,18.39 2,18.39 L2,20.34 C3.35,20.34 4.2,19.92 4.95,19.54 C5.6,19.21 6.12,18.94 7,18.94 C7.88,18.94 8.4,19.19 9.05,19.54 C9.8,19.92 10.62,20.34 12,20.34 C13.38,20.34 14.2,19.92 14.95,19.54 C15.6,19.21 16.13,18.94 17,18.94 C17.9,18.94 18.4,19.19 19.05,19.54 C19.8,19.92 20.63,20.34 22,20.34 L22,18.39 C21.1,18.39 20.6,18.14 19.95,17.79 C19.2,17.41 18.35,16.99 17,16.99 Z M17,12.54 C15.65,12.54 14.8,12.97 14.05,13.34 C13.4,13.66 12.87,13.94 12,13.94 C11.1,13.94 10.6,13.69 9.95,13.34 C9.2,12.96 8.38,12.54 7,12.54 C5.62,12.54 4.8,12.97 4.05,13.34 C3.4,13.66 2.88,13.94 2,13.94 L2,15.89 C3.35,15.89 4.2,15.46 4.95,15.09 C5.6,14.74 6.1,14.49 7,14.49 C7.9,14.49 8.4,14.74 9.05,15.09 C9.8,15.47 10.62,15.89 12,15.89 C13.38,15.89 14.2,15.46 14.95,15.09 C15.6,14.74 16.1,14.49 17,14.49 C17.9,14.49 18.4,14.74 19.05,15.09 C19.8,15.47 20.63,15.89 22,15.89 L22,13.94 C21.1,13.94 20.6,13.69 19.95,13.34 C19.2,12.96 18.35,12.54 17,12.54 Z M19.95,4.46 C19.2,4.08 18.37,3.66 17,3.66 C15.63,3.66 14.8,4.08 14.05,4.46 C13.4,4.78 12.87,5.06 12,5.06 C11.1,5.06 10.6,4.81 9.95,4.46 C9.2,4.09 8.38,3.66 7,3.66 C5.62,3.66 4.8,4.08 4.05,4.46 C3.4,4.79 2.88,5.06 2,5.06 L2,6.99 C3.35,6.99 4.2,6.56 4.95,6.19 C5.6,5.86 6.12,5.59 7,5.59 C7.88,5.59 8.4,5.84 9.05,6.19 C9.8,6.57 10.62,6.99 12,6.99 C13.38,6.99 14.2,6.56 14.95,6.19 C15.6,5.87 16.13,5.59 17,5.59 C17.9,5.59 18.4,5.84 19.05,6.19 C19.8,6.57 20.63,6.99 22,6.99 L22,5.04 C21.1,5.04 20.6,4.79 19.95,4.46 L19.95,4.46 Z M17,8.09 C15.65,8.09 14.8,8.52 14.05,8.89 C13.4,9.24 12.9,9.49 12,9.49 C11.1,9.49 10.6,9.24 9.95,8.89 C9.2,8.51 8.38,8.09 7,8.09 C5.62,8.09 4.8,8.52 4.05,8.89 C3.4,9.24 2.9,9.49 2,9.49 L2,11.44 C3.35,11.44 4.2,11.01 4.95,10.64 C5.6,10.32 6.13,10.04 7,10.04 C7.87,10.04 8.4,10.29 9.05,10.64 C9.8,11.02 10.62,11.44 12,11.44 C13.38,11.44 14.2,11.01 14.95,10.64 C15.6,10.32 16.13,10.04 17,10.04 C17.9,10.04 18.4,10.29 19.05,10.64 C19.8,11.02 20.63,11.44 22,11.44 L22,9.49 C21.1,9.49 20.6,9.24 19.95,8.89 C19.2,8.51 18.35,8.09 17,8.09 Z" id="Shape" fill="#3E4241" fill-rule="nonzero"></path>
        </g>
    </g>
</svg>
